X:89
T:Jude's Bush (r)
B:NFID.238b
089judes
S:JL
N:A setting of "Saint Ruth's Bush"
L:1/8
M:C
R:reel
Q:360
K:Am
Bd|eAAB cBcA|GE~E2 E2EG|A^GAB cBcd|eaag egd2|
eAAB cBcA|GE~E2 E2EG|A^GAB cdge|dBGB A2:|
Bd|eaag a2ag|eaaa baag|ede^f g2gg|eggg edBd|
eaag a2ag|eaaa baag|e2e^f gage|dBGB A2:|

%%%

